svgs/duotone/weight-scale.svg

<svg xmlns="http://www.w3.org/2000/svg" viewBox="0 0 512 512"><!-- Font Awesome Pro 6.0.0-alpha2 by @fontawesome - https://fontawesome.com License - https://fontawesome.com/license (Commercial License) --><defs><style>.fa-secondary{opacity:.4}</style></defs><path d="M256 0C158.799 0 80 78.797 80 176C80 273.201 158.799 352 256 352S432 273.201 432 176C432 78.797 353.201 0 256 0ZM256 304C185.42 304 128 246.58 128 176S185.42 48 256 48S384 105.42 384 176S326.58 304 256 304Z" class="fa-secondary"/><path d="M448 64H391.773C391.635 63.832 391.471 63.688 391.332 63.52C416.713 94.021 432 133.217 432 176C432 273.201 353.201 352 256 352S80 273.201 80 176C80 133.217 95.287 94.021 120.668 63.52C120.529 63.688 120.365 63.832 120.227 64H64C28.75 64 0 92.75 0 128V448C0 483.25 28.75 512 64 512H448C483.25 512 512 483.25 512 448V128C512 92.75 483.25 64 448 64ZM256 264C278.125 264 296 246.125 296 224C296 213.5 291.75 204 285 196.875L318.75 118.25C322.25 110.125 318.375 100.75 310.25 97.25C302.25 93.75 292.75 97.5 289.25 105.75L255.75 184C233.75 184.25 216 202 216 224C216 246.125 233.875 264 256 264Z" class="fa-primary"/></svg>

<svg xmlns="http://www.w3.org/2000/svg" viewBox="0 0 512 512"><!--! Font Awesome Pro 6.3.0 by @fontawesome - https://fontawesome.com License - https://fontawesome.com/license (Commercial License) Copyright 2023 Fonticons, Inc. --><defs><style>.fa-secondary{opacity:.4}</style></defs><path class="fa-primary" d="M448 64h-56.23c-.1387-.168-.3008-.3125-.4395-.4805C416.7 94.02 432 133.2 432 176c0 97.2-78.8 176-176 176S80 273.2 80 176c0-42.78 15.29-81.98 40.67-112.5C120.5 63.69 120.4 63.83 120.2 64H64C28.75 64 0 92.75 0 128v320c0 35.25 28.75 64 64 64h384c35.25 0 64-28.75 64-64V128C512 92.75 483.3 64 448 64zM256 264c22.12 0 40-17.88 40-40c0-10.5-4.25-20-11-27.12l33.75-78.63c3.5-8.125-.375-17.5-8.5-21c-8-3.5-17.5 .25-21 8.5L255.8 184C233.8 184.3 216 202 216 224C216 246.1 233.9 264 256 264z"/><path class="fa-secondary" d="M256 0C158.8 0 80 78.8 80 176C80 273.2 158.8 352 256 352s176-78.8 176-176C432 78.8 353.2 0 256 0zM256 304c-70.58 0-128-57.42-128-128s57.42-128 128-128s128 57.42 128 128S326.6 304 256 304z"/></svg>
